svg/factory-16.svg

<svg width="16" height="16" viewBox="0 0 16 16" fill="none" xmlns="http://www.w3.org/2000/svg">
<path fill-rule="evenodd" clip-rule="evenodd" d="M0 0H2V1H1V15H15V6.5L9 11V6.5L3 11V4H4V9L10 4.5V9L16 4.5V16H0V0ZM3 0H14.5V0.5C14.5 1.33429 14.2905 2.03795 13.8869 2.58566C13.4826 3.13431 12.912 3.48782 12.2588 3.66926C11.0225 4.01268 9.46825 3.75129 7.96269 3.03792C5.79239 3.72627 4.46386 3.54597 3.70895 2.79105C3.33388 2.41599 3.16174 1.95197 3.08002 1.54337C2.99995 1.14302 2.99998 0.758328 3 0.511107L3 0ZM4.01411 1C4.02294 1.11403 4.03729 1.23068 4.0606 1.34725C4.11951 1.64178 4.22862 1.89651 4.41605 2.08395C4.76374 2.43163 5.62826 2.76353 7.84189 2.02566L8.03836 1.96017L8.22361 2.05279C9.6607 2.77133 11.0286 2.97313 11.9912 2.70574C12.463 2.57468 12.8299 2.33444 13.0818 1.99246C13.2663 1.74208 13.4043 1.41658 13.4654 1H4.01411ZM6 13H8V14H6V13ZM12 13H14V14H12V13Z" fill="#1D1D1D"/>
</svg>

<svg xmlns="http://www.w3.org/2000/svg" width="16" height="16">
  <path fill-rule="evenodd" d="M0 0h2v1H1v14h14V6.5L9 11V6.5L3 11V4h1v5l6-4.5V9l6-4.5V16H0V0Zm3 0h11.5v.5c0 .834-.21 1.538-.613 2.086-.404.548-.975.902-1.628 1.083-1.236.344-2.79.082-4.296-.631-2.17.688-3.5.508-4.254-.247-.375-.375-.547-.839-.629-1.248C3 1.143 3 .758 3 .511V0Zm1.014 1c.009.114.023.23.047.347.059.295.168.55.355.737.348.348 1.212.68 3.426-.058l.196-.066.186.093c1.437.718 2.805.92 3.767.653.472-.131.839-.372 1.09-.714.185-.25.323-.575.384-.992h-9.45ZM6 13h2v1H6v-1Zm6 0h2v1h-2v-1Z" clip-rule="evenodd"/>
</svg>
